public/images/logos/auth_providers/github-dark.svg

<svg width="52" height="50" viewBox="0 0 52 50" fill="none" xmlns="http://www.w3.org/2000/svg">
<g clip-path="url(#clip0_219_14)">
<path fill-rule="evenodd" clip-rule="evenodd" d="M25 -0.5C10.9111 -0.5 -0.5 10.9705 -0.5 25.1331C-0.5 36.475 6.7991 46.055 16.9359 49.4516C18.2109 49.6752 18.6889 48.905 18.6889 48.2336L18.6574 43.4582C12.25 44.645 10.5931 41.8886 10.0831 40.4469C9.7959 39.7111 8.5531 37.4352 7.4689 36.8263C6.5761 36.3452 5.3011 35.1613 7.4374 35.1275C9.445 35.0956 10.8791 36.9863 11.3581 37.7552C13.6531 41.6336 17.3176 40.5444 18.7841 39.8711C19.0081 38.2052 19.6774 37.0836 20.41 36.4429C14.7361 35.8022 8.8081 33.5915 8.8081 23.7857C8.8081 20.9985 9.7959 18.6929 11.4211 16.897C11.1661 16.2567 10.2739 13.6293 11.6761 10.1047C11.6761 10.1047 13.8124 9.4329 18.6889 12.733C20.7289 12.1552 22.8961 11.867 25.0639 11.867C27.2317 11.867 29.3989 12.1552 31.4389 12.733C36.3159 9.4007 38.4511 10.1047 38.4511 10.1047C39.8539 13.6293 38.9611 16.2567 38.7061 16.897C40.3324 18.6929 41.32 20.9665 41.32 23.7857C41.32 33.6236 35.3591 35.8022 29.6859 36.4429C30.61 37.2444 31.4074 38.7822 31.4074 41.1852L31.375 48.2336C31.375 48.905 31.8526 49.7063 33.1276 49.4516C43.2009 46.055 50.5 36.4429 50.5 25.1331C50.5 10.9705 39.0889 -0.5 25 -0.5Z" fill="white"/>
</g>
<defs>
<clipPath id="clip0_219_14">
<rect width="52" height="50" fill="white"/>
</clipPath>
</defs>
</svg>

<svg xmlns="http://www.w3.org/2000/svg" width="52" height="50" fill="none"><g clip-path="url(#a)"><path fill="#fff" fill-rule="evenodd" d="M25-.5C10.911-.5-.5 10.97-.5 25.133c0 11.342 7.3 20.922 17.436 24.319 1.275.223 1.753-.547 1.753-1.218l-.032-4.776c-6.407 1.187-8.064-1.57-8.574-3.011-.287-.736-1.53-3.012-2.614-3.62-.893-.482-2.168-1.666-.032-1.7 2.008-.031 3.442 1.86 3.921 2.628 2.295 3.879 5.96 2.79 7.426 2.116.224-1.666.893-2.787 1.626-3.428-5.674-.64-11.602-2.851-11.602-12.657 0-2.788.988-5.093 2.613-6.889-.255-.64-1.147-3.268.255-6.792 0 0 2.136-.672 7.013 2.628a23.5 23.5 0 0 1 6.375-.866c2.168 0 4.335.288 6.375.866 4.877-3.332 7.012-2.628 7.012-2.628 1.403 3.524.51 6.152.255 6.792 1.626 1.796 2.614 4.07 2.614 6.889 0 9.838-5.96 12.016-11.634 12.657.924.801 1.721 2.34 1.721 4.742l-.032 7.049c0 .671.478 1.472 1.753 1.218C43.2 46.055 50.5 36.442 50.5 25.133 50.5 10.971 39.089-.5 25-.5" clip-rule="evenodd"/></g><defs><clipPath id="a"><path fill="#fff" d="M0 0h52v50H0z"/></clipPath></defs></svg>
